public/story_background.svg

<svg width="993" height="774" fill="none" xmlns="http://www.w3.org/2000/svg"><path fill-rule="evenodd" clip-rule="evenodd" d="M346.047 771c83.665 0 160.435-32.57 220.462-86.845 34.909 21.008 74.771 32.915 117.098 32.915 130.046 0 236.824-112.401 248.177-255.794l52.045-31.484c8.232-4.98 7.551-17.136-1.186-21.164l-54.162-24.978c-21.719-130.281-123.094-228.848-244.874-228.848a222.898 222.898 0 00-55.601 7.025C564.76 65.591 462.029 3 346.047 3 153.826 3-2 174.923-2 387s155.826 384 348.047 384z" fill="url(#prefix__paint0_linear_2305_13)"/><path d="M566.509 684.155l1.289-2.142a2.5 2.5 0 00-2.966.288l1.677 1.854zm365.275-222.879l-1.294-2.139a2.504 2.504 0 00-1.198 1.942l2.492.197zm52.045-31.484l-1.294-2.139 1.294 2.139zm-1.186-21.164l-1.047 2.27 1.047-2.27zm-54.162-24.978l-2.466.411a2.502 2.502 0 001.419 1.859l1.047-2.27zM628.006 161.827l-2.089 1.373a2.501 2.501 0 002.712 1.049l-.623-2.422zm-63.174 520.474C505.226 736.195 429.041 768.5 346.047 768.5v5c84.335 0 161.691-32.835 222.139-87.49l-3.354-3.709zm118.775 32.269c-41.848 0-81.267-11.77-115.809-32.557l-2.578 4.284c35.276 21.229 75.581 33.273 118.387 33.273v-5zm245.685-253.491C918.02 603.441 812.095 714.57 683.607 714.57v5c131.604 0 239.234-113.673 250.67-258.096l-4.985-.395zm3.786 2.336l52.045-31.484-2.588-4.278-52.045 31.484 2.588 4.278zm52.045-31.484c9.947-6.017 9.124-20.706-1.433-25.574l-2.094 4.541c6.917 3.189 7.456 12.813.939 16.755l2.588 4.278zm-1.433-25.574l-54.162-24.978-2.094 4.541 54.162 24.978 2.094-4.541zM683.607 157.302c120.327 0 220.85 97.44 242.408 226.759l4.932-.822c-21.879-131.244-124.107-230.937-247.34-230.937v5zm-54.978 6.947a220.367 220.367 0 0154.978-6.947v-5a225.37 225.37 0 00-56.223 7.104l1.245 4.843zM346.047 5.5c115.038 0 217.027 62.078 279.87 157.7l4.179-2.746C566.446 63.604 462.972.5 346.047.5v5zM.5 387C.5 176.066 155.432 5.5 346.047 5.5v-5C152.22.5-4.5 173.779-4.5 387h5zm345.547 381.5C155.432 768.5.5 597.934.5 387h-5c0 213.221 156.72 386.5 350.547 386.5v-5z" fill="#000"/><defs><linearGradient id="prefix__paint0_linear_2305_13" x1="927.274" y1="414.464" x2="37.447" y2="518.325" gradientUnits="userSpaceOnUse"><stop stop-color="#C8D4FF"/><stop offset="1" stop-color="#D4F5FF"/></linearGradient></defs></svg>

<svg width="993" height="774" viewBox="0 0 993 774" fill="none" xmlns="http://www.w3.org/2000/svg">
<path fill-rule="evenodd" clip-rule="evenodd" d="M346.047 771C429.712 771 506.482 738.43 566.509 684.155C601.418 705.163 641.28 717.07 683.607 717.07C813.653 717.07 920.431 604.669 931.784 461.276L983.829 429.792C992.061 424.812 991.38 412.656 982.643 408.628L928.481 383.65C906.762 253.369 805.387 154.802 683.607 154.802C664.495 154.802 645.885 157.23 628.006 161.827C564.76 65.5908 462.029 3 346.047 3C153.826 3 -2 174.923 -2 387C-2 599.077 153.826 771 346.047 771Z" fill="url(#paint0_linear_2305_13)"/>
<path d="M566.509 684.155L567.798 682.013C566.854 681.445 565.649 681.562 564.832 682.301L566.509 684.155ZM931.784 461.276L930.49 459.137C929.802 459.554 929.356 460.277 929.292 461.079L931.784 461.276ZM983.829 429.792L982.535 427.653L983.829 429.792ZM982.643 408.628L981.596 410.898V410.898L982.643 408.628ZM928.481 383.65L926.015 384.061C926.151 384.877 926.683 385.573 927.434 385.92L928.481 383.65ZM628.006 161.827L625.917 163.2C626.504 164.093 627.594 164.515 628.629 164.249L628.006 161.827ZM564.832 682.301C505.226 736.195 429.041 768.5 346.047 768.5V773.5C430.382 773.5 507.738 740.665 568.186 686.01L564.832 682.301ZM683.607 714.57C641.759 714.57 602.34 702.8 567.798 682.013L565.22 686.297C600.496 707.526 640.801 719.57 683.607 719.57V714.57ZM929.292 461.079C918.02 603.441 812.095 714.57 683.607 714.57V719.57C815.211 719.57 922.841 605.897 934.277 461.474L929.292 461.079ZM933.078 463.415L985.123 431.931L982.535 427.653L930.49 459.137L933.078 463.415ZM985.123 431.931C995.07 425.914 994.247 411.225 983.69 406.357L981.596 410.898C988.513 414.087 989.052 423.711 982.535 427.653L985.123 431.931ZM983.69 406.357L929.528 381.379L927.434 385.92L981.596 410.898L983.69 406.357ZM683.607 157.302C803.934 157.302 904.457 254.742 926.015 384.061L930.947 383.239C909.068 251.995 806.84 152.302 683.607 152.302V157.302ZM628.629 164.249C646.307 159.703 664.708 157.302 683.607 157.302V152.302C664.282 152.302 645.463 154.757 627.384 159.406L628.629 164.249ZM346.047 5.5C461.085 5.5 563.074 67.5778 625.917 163.2L630.096 160.454C566.446 63.6039 462.972 0.5 346.047 0.5V5.5ZM0.5 387C0.5 176.066 155.432 5.5 346.047 5.5V0.5C152.22 0.5 -4.5 173.779 -4.5 387H0.5ZM346.047 768.5C155.432 768.5 0.5 597.934 0.5 387H-4.5C-4.5 600.221 152.22 773.5 346.047 773.5V768.5Z" fill="black"/>
<defs>
<linearGradient id="paint0_linear_2305_13" x1="927.274" y1="414.464" x2="37.4475" y2="518.325" gradientUnits="userSpaceOnUse">
<stop stop-color="#C8D4FF"/>
<stop offset="1" stop-color="#D4F5FF"/>
</linearGradient>
</defs>
</svg>
